images/50571417.svg

<?xml version="1.0" encoding="UTF-8"?>
<svg xmlns="http://www.w3.org/2000/svg" xmlns:xlink="http://www.w3.org/1999/xlink" width="300pt" height="300pt" viewBox="0 0 300 300" version="1.1">
<defs>
<g>
<symbol overflow="visible" id="glyph0-0">
<path style="stroke:none;" d="M 0.640625 2.296875 L 0.640625 -9.171875 L 7.140625 -9.171875 L 7.140625 2.296875 Z M 1.375 1.578125 L 6.421875 1.578125 L 6.421875 -8.4375 L 1.375 -8.4375 Z M 1.375 1.578125 "/>
</symbol>
<symbol overflow="visible" id="glyph0-1">
<path style="stroke:none;" d="M 5.125 -8.609375 C 4.1875 -8.609375 3.441406 -8.257812 2.890625 -7.5625 C 2.347656 -6.875 2.078125 -5.929688 2.078125 -4.734375 C 2.078125 -3.535156 2.347656 -2.585938 2.890625 -1.890625 C 3.441406 -1.203125 4.1875 -0.859375 5.125 -0.859375 C 6.050781 -0.859375 6.785156 -1.203125 7.328125 -1.890625 C 7.878906 -2.585938 8.15625 -3.535156 8.15625 -4.734375 C 8.15625 -5.929688 7.878906 -6.875 7.328125 -7.5625 C 6.785156 -8.257812 6.050781 -8.609375 5.125 -8.609375 Z M 5.125 -9.65625 C 6.445312 -9.65625 7.503906 -9.207031 8.296875 -8.3125 C 9.097656 -7.414062 9.5 -6.222656 9.5 -4.734375 C 9.5 -3.234375 9.097656 -2.035156 8.296875 -1.140625 C 7.503906 -0.253906 6.445312 0.1875 5.125 0.1875 C 3.789062 0.1875 2.722656 -0.253906 1.921875 -1.140625 C 1.128906 -2.035156 0.734375 -3.234375 0.734375 -4.734375 C 0.734375 -6.222656 1.128906 -7.414062 1.921875 -8.3125 C 2.722656 -9.207031 3.789062 -9.65625 5.125 -9.65625 Z M 5.125 -9.65625 "/>
</symbol>
<symbol overflow="visible" id="glyph0-2">
<path style="stroke:none;" d="M 1.28125 -9.484375 L 3 -9.484375 L 7.203125 -1.546875 L 7.203125 -9.484375 L 8.453125 -9.484375 L 8.453125 0 L 6.71875 0 L 2.515625 -7.921875 L 2.515625 0 L 1.28125 0 Z M 1.28125 -9.484375 "/>
</symbol>
<symbol overflow="visible" id="glyph0-3">
<path style="stroke:none;" d="M 1.28125 -9.484375 L 2.5625 -9.484375 L 2.5625 -5.59375 L 7.21875 -5.59375 L 7.21875 -9.484375 L 8.5 -9.484375 L 8.5 0 L 7.21875 0 L 7.21875 -4.515625 L 2.5625 -4.515625 L 2.5625 0 L 1.28125 0 Z M 1.28125 -9.484375 "/>
</symbol>
</g>
</defs>
<g id="surface19557">
<rect x="0" y="0" width="300" height="300" style="fill:rgb(100%,100%,100%);fill-opacity:1;stroke:none;"/>
<path style="fill:none;stroke-width:1.2;stroke-linecap:butt;stroke-linejoin:miter;stroke:rgb(100%,0%,0%);stroke-opacity:1;stroke-miterlimit:10;" d="M 156.859375 264.769531 L 169.835938 255.355469 "/>
<path style="fill:none;stroke-width:1.2;stroke-linecap:butt;stroke-linejoin:miter;stroke:rgb(0%,0%,0%);stroke-opacity:1;stroke-miterlimit:10;" d="M 169.835938 255.355469 L 182.8125 245.941406 "/>
<path style="fill:none;stroke-width:1.2;stroke-linecap:butt;stroke-linejoin:miter;stroke:rgb(0%,0%,0%);stroke-opacity:1;stroke-miterlimit:10;" d="M 130.929688 245.90625 L 143.894531 255.335938 "/>
<path style="fill:none;stroke-width:1.2;stroke-linecap:butt;stroke-linejoin:miter;stroke:rgb(100%,0%,0%);stroke-opacity:1;stroke-miterlimit:10;" d="M 143.894531 255.335938 L 156.859375 264.769531 "/>
<path style=" stroke:none;fill-rule:nonzero;fill:rgb(100%,100%,100%);fill-opacity:1;" d="M 151.859375 256.769531 L 162.859375 256.769531 L 162.859375 272.769531 L 151.859375 272.769531 Z M 151.859375 256.769531 "/>
<g style="fill:rgb(100%,0%,0%);fill-opacity:1;">
  <use xlink:href="#glyph0-1" x="151.859375" y="269.145508"/>
</g>
<path style="fill:none;stroke-width:1.2;stroke-linecap:butt;stroke-linejoin:miter;stroke:rgb(0%,0%,0%);stroke-opacity:1;stroke-miterlimit:10;" d="M 182.8125 245.941406 L 172.925781 215.441406 "/>
<path style="fill:none;stroke-width:1.2;stroke-linecap:butt;stroke-linejoin:miter;stroke:rgb(0%,0%,0%);stroke-opacity:1;stroke-miterlimit:10;" d="M 172.925781 215.441406 L 140.859375 215.417969 "/>
<path style="fill:none;stroke-width:1.2;stroke-linecap:butt;stroke-linejoin:miter;stroke:rgb(0%,0%,0%);stroke-opacity:1;stroke-miterlimit:10;" d="M 140.859375 215.417969 L 119.421875 191.574219 "/>
<path style="fill:none;stroke-width:1.2;stroke-linecap:butt;stroke-linejoin:miter;stroke:rgb(0%,0%,0%);stroke-opacity:1;stroke-miterlimit:10;" d="M 133.105469 218.078125 L 115.957031 199.003906 "/>
<path style="fill:none;stroke-width:1.2;stroke-linecap:butt;stroke-linejoin:miter;stroke:rgb(0%,0%,0%);stroke-opacity:1;stroke-miterlimit:10;" d="M 130.929688 245.90625 L 140.859375 215.417969 "/>
<path style="fill:none;stroke-width:1.2;stroke-linecap:butt;stroke-linejoin:miter;stroke:rgb(0%,0%,0%);stroke-opacity:1;stroke-miterlimit:10;" d="M 119.421875 191.574219 L 88.054688 198.21875 "/>
<path style="fill:none;stroke-width:1.2;stroke-linecap:butt;stroke-linejoin:miter;stroke:rgb(0%,0%,0%);stroke-opacity:1;stroke-miterlimit:10;" d="M 88.054688 198.21875 L 78.125 228.707031 "/>
<path style="fill:none;stroke-width:1.2;stroke-linecap:butt;stroke-linejoin:miter;stroke:rgb(0%,0%,0%);stroke-opacity:1;stroke-miterlimit:10;" d="M 94.234375 203.605469 L 86.292969 227.996094 "/>
<path style="fill:none;stroke-width:1.2;stroke-linecap:butt;stroke-linejoin:miter;stroke:rgb(0%,0%,0%);stroke-opacity:1;stroke-miterlimit:10;" d="M 88.054688 198.21875 L 66.617188 174.378906 "/>
<path style="fill:none;stroke-width:1.2;stroke-linecap:butt;stroke-linejoin:miter;stroke:rgb(0%,0%,0%);stroke-opacity:1;stroke-miterlimit:10;" d="M 78.125 228.707031 L 99.5625 252.550781 "/>
<path style="fill:none;stroke-width:1.2;stroke-linecap:butt;stroke-linejoin:miter;stroke:rgb(0%,0%,0%);stroke-opacity:1;stroke-miterlimit:10;" d="M 99.5625 252.550781 L 130.929688 245.90625 "/>
<path style="fill:none;stroke-width:1.2;stroke-linecap:butt;stroke-linejoin:miter;stroke:rgb(0%,0%,0%);stroke-opacity:1;stroke-miterlimit:10;" d="M 101.136719 244.503906 L 126.230469 239.1875 "/>
<path style="fill:none;stroke-width:1.2;stroke-linecap:butt;stroke-linejoin:miter;stroke:rgb(0%,0%,0%);stroke-opacity:1;stroke-miterlimit:10;" d="M 65.835938 170.6875 L 50.152344 174.007812 "/>
<path style="fill:none;stroke-width:1.2;stroke-linecap:butt;stroke-linejoin:miter;stroke:rgb(100%,0%,0%);stroke-opacity:1;stroke-miterlimit:10;" d="M 50.152344 174.007812 L 34.46875 177.332031 "/>
<path style="fill:none;stroke-width:1.2;stroke-linecap:butt;stroke-linejoin:miter;stroke:rgb(0%,0%,0%);stroke-opacity:1;stroke-miterlimit:10;" d="M 67.398438 178.066406 L 51.714844 181.390625 "/>
<path style="fill:none;stroke-width:1.2;stroke-linecap:butt;stroke-linejoin:miter;stroke:rgb(100%,0%,0%);stroke-opacity:1;stroke-miterlimit:10;" d="M 51.714844 181.390625 L 36.03125 184.710938 "/>
<path style="fill:none;stroke-width:1.2;stroke-linecap:butt;stroke-linejoin:miter;stroke:rgb(0%,0%,0%);stroke-opacity:1;stroke-miterlimit:10;" d="M 66.617188 174.378906 L 71.582031 159.132812 "/>
<path style="fill:none;stroke-width:1.2;stroke-linecap:butt;stroke-linejoin:miter;stroke:rgb(0%,0%,100%);stroke-opacity:1;stroke-miterlimit:10;" d="M 71.582031 159.132812 L 76.546875 143.890625 "/>
<path style=" stroke:none;fill-rule:nonzero;fill:rgb(100%,100%,100%);fill-opacity:1;" d="M 24.25 173.023438 L 35.25 173.023438 L 35.25 189.023438 L 24.25 189.023438 Z M 24.25 173.023438 "/>
<g style="fill:rgb(100%,0%,0%);fill-opacity:1;">
  <use xlink:href="#glyph0-1" x="24.25" y="185.399414"/>
</g>
<path style="fill:none;stroke-width:1.2;stroke-linecap:butt;stroke-linejoin:miter;stroke:rgb(0%,0%,100%);stroke-opacity:1;stroke-miterlimit:10;" d="M 76.546875 143.890625 L 65.828125 131.96875 "/>
<path style="fill:none;stroke-width:1.2;stroke-linecap:butt;stroke-linejoin:miter;stroke:rgb(0%,0%,0%);stroke-opacity:1;stroke-miterlimit:10;" d="M 65.828125 131.96875 L 55.109375 120.046875 "/>
<path style="fill:none;stroke-width:1.2;stroke-linecap:butt;stroke-linejoin:miter;stroke:rgb(0%,0%,100%);stroke-opacity:1;stroke-miterlimit:10;" d="M 76.546875 143.890625 L 92.230469 140.566406 "/>
<path style="fill:none;stroke-width:1.2;stroke-linecap:butt;stroke-linejoin:miter;stroke:rgb(0%,0%,0%);stroke-opacity:1;stroke-miterlimit:10;" d="M 92.230469 140.566406 L 107.914062 137.246094 "/>
<path style=" stroke:none;fill-rule:nonzero;fill:rgb(100%,100%,100%);fill-opacity:1;" d="M 71.546875 135.890625 L 81.546875 135.890625 L 81.546875 151.890625 L 71.546875 151.890625 Z M 71.546875 135.890625 "/>
<g style="fill:rgb(0%,0%,100%);fill-opacity:1;">
  <use xlink:href="#glyph0-2" x="71.546875" y="148.266602"/>
</g>
<path style="fill:none;stroke-width:1.2;stroke-linecap:butt;stroke-linejoin:miter;stroke:rgb(0%,0%,0%);stroke-opacity:1;stroke-miterlimit:10;" d="M 55.109375 120.046875 L 65.039062 89.558594 "/>
<path style="fill:none;stroke-width:1.2;stroke-linecap:butt;stroke-linejoin:miter;stroke:rgb(0%,0%,0%);stroke-opacity:1;stroke-miterlimit:10;" d="M 65.039062 89.558594 L 54.320312 77.640625 "/>
<path style="fill:none;stroke-width:1.2;stroke-linecap:butt;stroke-linejoin:miter;stroke:rgb(100%,0%,0%);stroke-opacity:1;stroke-miterlimit:10;" d="M 54.320312 77.640625 L 43.597656 65.71875 "/>
<path style="fill:none;stroke-width:1.2;stroke-linecap:butt;stroke-linejoin:miter;stroke:rgb(100%,0%,0%);stroke-opacity:1;stroke-miterlimit:10;" d="M 43.597656 65.71875 L 48.5625 50.472656 "/>
<path style="fill:none;stroke-width:1.2;stroke-linecap:butt;stroke-linejoin:miter;stroke:rgb(0%,0%,0%);stroke-opacity:1;stroke-miterlimit:10;" d="M 48.5625 50.472656 L 53.527344 35.230469 "/>
<path style=" stroke:none;fill-rule:nonzero;fill:rgb(100%,100%,100%);fill-opacity:1;" d="M 38.597656 57.71875 L 49.597656 57.71875 L 49.597656 73.71875 L 38.597656 73.71875 Z M 38.597656 57.71875 "/>
<g style="fill:rgb(100%,0%,0%);fill-opacity:1;">
  <use xlink:href="#glyph0-1" x="38.597656" y="70.094727"/>
</g>
<path style="fill:none;stroke-width:1.2;stroke-linecap:butt;stroke-linejoin:miter;stroke:rgb(0%,0%,0%);stroke-opacity:1;stroke-miterlimit:10;" d="M 107.914062 137.246094 L 118.632812 149.167969 "/>
<path style="fill:none;stroke-width:1.2;stroke-linecap:butt;stroke-linejoin:miter;stroke:rgb(0%,0%,100%);stroke-opacity:1;stroke-miterlimit:10;" d="M 118.632812 149.167969 L 129.351562 161.089844 "/>
<path style="fill:none;stroke-width:1.2;stroke-linecap:butt;stroke-linejoin:miter;stroke:rgb(0%,0%,0%);stroke-opacity:1;stroke-miterlimit:10;" d="M 115.667969 134.585938 L 124.242188 144.121094 "/>
<path style="fill:none;stroke-width:1.2;stroke-linecap:butt;stroke-linejoin:miter;stroke:rgb(0%,0%,100%);stroke-opacity:1;stroke-miterlimit:10;" d="M 124.242188 144.121094 L 132.816406 153.660156 "/>
<path style="fill:none;stroke-width:1.2;stroke-linecap:butt;stroke-linejoin:miter;stroke:rgb(0%,0%,0%);stroke-opacity:1;stroke-miterlimit:10;" d="M 117.84375 106.757812 L 107.914062 137.246094 "/>
<path style="fill:none;stroke-width:1.2;stroke-linecap:butt;stroke-linejoin:miter;stroke:rgb(0%,0%,100%);stroke-opacity:1;stroke-miterlimit:10;" d="M 129.351562 161.089844 L 145.035156 157.765625 "/>
<path style="fill:none;stroke-width:1.2;stroke-linecap:butt;stroke-linejoin:miter;stroke:rgb(0%,0%,0%);stroke-opacity:1;stroke-miterlimit:10;" d="M 145.035156 157.765625 L 160.71875 154.441406 "/>
<path style=" stroke:none;fill-rule:nonzero;fill:rgb(100%,100%,100%);fill-opacity:1;" d="M 124.351562 153.089844 L 134.351562 153.089844 L 134.351562 169.089844 L 124.351562 169.089844 Z M 124.351562 153.089844 "/>
<g style="fill:rgb(0%,0%,100%);fill-opacity:1;">
  <use xlink:href="#glyph0-2" x="124.351562" y="165.46582"/>
</g>
<path style="fill:none;stroke-width:1.2;stroke-linecap:butt;stroke-linejoin:miter;stroke:rgb(0%,0%,0%);stroke-opacity:1;stroke-miterlimit:10;" d="M 160.71875 154.441406 L 165.683594 139.199219 "/>
<path style="fill:none;stroke-width:1.2;stroke-linecap:butt;stroke-linejoin:miter;stroke:rgb(0%,0%,100%);stroke-opacity:1;stroke-miterlimit:10;" d="M 165.683594 139.199219 L 170.648438 123.957031 "/>
<path style="fill:none;stroke-width:1.2;stroke-linecap:butt;stroke-linejoin:miter;stroke:rgb(0%,0%,0%);stroke-opacity:1;stroke-miterlimit:10;" d="M 154.539062 149.058594 L 158.511719 136.863281 "/>
<path style="fill:none;stroke-width:1.2;stroke-linecap:butt;stroke-linejoin:miter;stroke:rgb(0%,0%,100%);stroke-opacity:1;stroke-miterlimit:10;" d="M 158.511719 136.863281 L 162.480469 124.667969 "/>
<path style="fill:none;stroke-width:1.2;stroke-linecap:butt;stroke-linejoin:miter;stroke:rgb(0%,0%,0%);stroke-opacity:1;stroke-miterlimit:10;" d="M 160.71875 154.441406 L 171.4375 166.363281 "/>
<path style="fill:none;stroke-width:1.2;stroke-linecap:butt;stroke-linejoin:miter;stroke:rgb(0%,0%,100%);stroke-opacity:1;stroke-miterlimit:10;" d="M 171.4375 166.363281 L 182.15625 178.285156 "/>
<path style="fill:none;stroke-width:1.2;stroke-linecap:butt;stroke-linejoin:miter;stroke:rgb(0%,0%,100%);stroke-opacity:1;stroke-miterlimit:10;" d="M 170.648438 123.957031 L 159.929688 112.035156 "/>
<path style="fill:none;stroke-width:1.2;stroke-linecap:butt;stroke-linejoin:miter;stroke:rgb(0%,0%,0%);stroke-opacity:1;stroke-miterlimit:10;" d="M 159.929688 112.035156 L 149.210938 100.113281 "/>
<path style=" stroke:none;fill-rule:nonzero;fill:rgb(100%,100%,100%);fill-opacity:1;" d="M 165.648438 115.957031 L 175.648438 115.957031 L 175.648438 131.957031 L 165.648438 131.957031 Z M 165.648438 115.957031 "/>
<g style="fill:rgb(0%,0%,100%);fill-opacity:1;">
  <use xlink:href="#glyph0-2" x="165.648438" y="128.333008"/>
</g>
<path style="fill:none;stroke-width:1.2;stroke-linecap:butt;stroke-linejoin:miter;stroke:rgb(0%,0%,0%);stroke-opacity:1;stroke-miterlimit:10;" d="M 149.210938 100.113281 L 117.84375 106.757812 "/>
<path style="fill:none;stroke-width:1.2;stroke-linecap:butt;stroke-linejoin:miter;stroke:rgb(0%,0%,0%);stroke-opacity:1;stroke-miterlimit:10;" d="M 147.636719 108.160156 L 122.542969 113.472656 "/>
<path style="fill:none;stroke-width:1;stroke-linecap:butt;stroke-linejoin:miter;stroke:rgb(0%,0%,0%);stroke-opacity:1;stroke-miterlimit:10;" d="M 213.523438 171.640625 L 213.523438 171.640625 M 210.527344 171.742188 L 210.742188 172.761719 M 207.527344 171.84375 L 207.960938 173.886719 M 204.53125 171.949219 L 205.179688 175.007812 M 201.53125 172.050781 L 202.394531 176.128906 M 198.53125 172.152344 L 199.613281 177.253906 M 195.535156 172.253906 L 196.832031 178.375 M 192.535156 172.355469 L 194.050781 179.496094 M 189.539062 172.457031 L 191.265625 180.621094 M 186.539062 172.5625 L 188.484375 181.742188 M 183.542969 172.664062 L 185.703125 182.863281 M 180.984375 172.75 L 183.328125 183.820312 "/>
<path style=" stroke:none;fill-rule:nonzero;fill:rgb(100%,100%,100%);fill-opacity:1;" d="M 172.15625 170.285156 L 192.15625 170.285156 L 192.15625 186.285156 L 172.15625 186.285156 Z M 172.15625 170.285156 "/>
<g style="fill:rgb(0%,0%,100%);fill-opacity:1;">
  <use xlink:href="#glyph0-2" x="172.15625" y="182.661133"/>
  <use xlink:href="#glyph0-3" x="182.125977" y="182.661133"/>
</g>
<path style="fill:none;stroke-width:1.2;stroke-linecap:butt;stroke-linejoin:miter;stroke:rgb(0%,0%,0%);stroke-opacity:1;stroke-miterlimit:10;" d="M 213.523438 171.640625 L 234.960938 195.484375 "/>
<path style="fill:none;stroke-width:1.2;stroke-linecap:butt;stroke-linejoin:miter;stroke:rgb(0%,0%,0%);stroke-opacity:1;stroke-miterlimit:10;" d="M 213.523438 171.640625 L 223.453125 141.152344 "/>
<path style="fill:none;stroke-width:1.2;stroke-linecap:butt;stroke-linejoin:miter;stroke:rgb(0%,0%,0%);stroke-opacity:1;stroke-miterlimit:10;" d="M 223.453125 141.152344 L 254.820312 134.507812 "/>
<path style="fill:none;stroke-width:1.2;stroke-linecap:butt;stroke-linejoin:miter;stroke:rgb(0%,0%,0%);stroke-opacity:1;stroke-miterlimit:10;" d="M 225.027344 133.109375 L 250.121094 127.792969 "/>
<path style="fill:none;stroke-width:1.2;stroke-linecap:butt;stroke-linejoin:miter;stroke:rgb(0%,0%,0%);stroke-opacity:1;stroke-miterlimit:10;" d="M 202.015625 117.3125 L 223.453125 141.152344 "/>
<path style="fill:none;stroke-width:1.2;stroke-linecap:butt;stroke-linejoin:miter;stroke:rgb(0%,0%,0%);stroke-opacity:1;stroke-miterlimit:10;" d="M 254.820312 134.507812 L 264.75 104.023438 "/>
<path style="fill:none;stroke-width:1.2;stroke-linecap:butt;stroke-linejoin:miter;stroke:rgb(0%,0%,0%);stroke-opacity:1;stroke-miterlimit:10;" d="M 264.75 104.023438 L 243.3125 80.179688 "/>
<path style="fill:none;stroke-width:1.2;stroke-linecap:butt;stroke-linejoin:miter;stroke:rgb(0%,0%,0%);stroke-opacity:1;stroke-miterlimit:10;" d="M 256.996094 106.683594 L 239.847656 87.609375 "/>
<path style="fill:none;stroke-width:1.2;stroke-linecap:butt;stroke-linejoin:miter;stroke:rgb(0%,0%,0%);stroke-opacity:1;stroke-miterlimit:10;" d="M 243.3125 80.179688 L 211.945312 86.824219 "/>
<path style="fill:none;stroke-width:1.2;stroke-linecap:butt;stroke-linejoin:miter;stroke:rgb(0%,0%,0%);stroke-opacity:1;stroke-miterlimit:10;" d="M 211.945312 86.824219 L 202.015625 117.3125 "/>
<path style="fill:none;stroke-width:1.2;stroke-linecap:butt;stroke-linejoin:miter;stroke:rgb(0%,0%,0%);stroke-opacity:1;stroke-miterlimit:10;" d="M 218.125 92.210938 L 210.183594 116.597656 "/>
</g>
</svg>

<svg xmlns="http://www.w3.org/2000/svg" xmlns:xlink="http://www.w3.org/1999/xlink" width="300pt" height="300pt" viewBox="0 0 300 300"><defs><symbol overflow="visible"><path d="M.64 2.297v-11.47h6.5v11.47zm.735-.72h5.047V-8.436H1.375zm0 0"/></symbol><symbol overflow="visible" id="a"><path d="M5.125-8.61c-.938 0-1.684.352-2.234 1.047-.542.688-.812 1.633-.812 2.83 0 1.198.27 2.147.813 2.842.55.687 1.297 1.03 2.235 1.03.926 0 1.66-.343 2.203-1.03.55-.696.828-1.645.828-2.844 0-1.196-.277-2.14-.828-2.829-.543-.695-1.277-1.046-2.203-1.046zm0-1.046c1.32 0 2.38.45 3.172 1.344.8.898 1.203 2.09 1.203 3.578 0 1.5-.402 2.7-1.203 3.593C7.504-.255 6.445.186 5.125.186c-1.336 0-2.402-.44-3.203-1.328C1.13-2.036.734-3.235.734-4.735c0-1.49.395-2.68 1.188-3.579.8-.894 1.867-1.343 3.203-1.343zm0 0"/></symbol><symbol overflow="visible" id="b"><path d="M1.28-9.484H3l4.203 7.937v-7.937h1.25V0H6.72L2.515-7.922V0H1.28zm0 0"/></symbol><symbol overflow="visible" id="c"><path d="M1.28-9.484h1.282v3.89H7.22v-3.89H8.5V0H7.22v-4.516H2.562V0H1.28zm0 0"/></symbol></defs><g><path fill="#fff" d="M0 0h300v300H0z"/><path d="M156.86 264.77l12.976-9.415" stroke-width="1.2" stroke="#f00" stroke-miterlimit="10" fill="none"/><path d="M169.836 255.355l12.976-9.414M130.93 245.906l12.965 9.43" stroke-width="1.2" stroke="#000" stroke-miterlimit="10" fill="none"/><path d="M143.895 255.336l12.964 9.434" stroke-width="1.2" stroke="#f00" stroke-miterlimit="10" fill="none"/><path d="M151.86 256.77h11v16h-11zm0 0" fill="#fff"/><use xlink:href="#a" x="151.859" y="269.146" fill="#f00"/><path d="M182.813 245.94l-9.887-30.5M172.926 215.44l-32.067-.022M140.86 215.418l-21.438-23.844M133.105 218.078l-17.148-19.074M130.93 245.906l9.93-30.488M119.422 191.574l-31.367 6.645M88.055 198.22l-9.93 30.487M94.234 203.605l-7.94 24.39M88.055 198.22l-21.438-23.84M78.125 228.707l21.438 23.844M99.563 252.55l31.367-6.644M101.137 244.504l25.093-5.316M65.836 170.688l-15.684 3.32" stroke-width="1.2" stroke="#000" stroke-miterlimit="10" fill="none"/><path d="M50.152 174.008l-15.683 3.324" stroke-width="1.2" stroke="#f00" stroke-miterlimit="10" fill="none"/><path d="M67.398 178.066l-15.683 3.325" stroke-width="1.2" stroke="#000" stroke-miterlimit="10" fill="none"/><path d="M51.715 181.39l-15.684 3.32" stroke-width="1.2" stroke="#f00" stroke-miterlimit="10" fill="none"/><path d="M66.617 174.38l4.965-15.247" stroke-width="1.2" stroke="#000" stroke-miterlimit="10" fill="none"/><path d="M71.582 159.133l4.965-15.242" stroke-width="1.2" stroke="#00f" stroke-miterlimit="10" fill="none"/><path d="M24.25 173.023h11v16h-11zm0 0" fill="#fff"/><use xlink:href="#a" x="24.25" y="185.399" fill="#f00"/><path d="M76.547 143.89l-10.72-11.92" stroke-width="1.2" stroke="#00f" stroke-miterlimit="10" fill="none"/><path d="M65.828 131.97l-10.72-11.923" stroke-width="1.2" stroke="#000" stroke-miterlimit="10" fill="none"/><path d="M76.547 143.89l15.683-3.324" stroke-width="1.2" stroke="#00f" stroke-miterlimit="10" fill="none"/><path d="M92.23 140.566l15.684-3.32" stroke-width="1.2" stroke="#000" stroke-miterlimit="10" fill="none"/><path d="M71.547 135.89h10v16h-10zm0 0" fill="#fff"/><use xlink:href="#b" x="71.547" y="148.267" fill="#00f"/><path d="M55.11 120.047l9.93-30.488M65.04 89.56L54.32 77.64" stroke-width="1.2" stroke="#000" stroke-miterlimit="10" fill="none"/><path d="M54.32 77.64L43.598 65.72M43.598 65.72l4.965-15.247" stroke-width="1.2" stroke="#f00" stroke-miterlimit="10" fill="none"/><path d="M48.563 50.473l4.964-15.243" stroke-width="1.2" stroke="#000" stroke-miterlimit="10" fill="none"/><path d="M38.598 57.72h11v16h-11zm0 0" fill="#fff"/><use xlink:href="#a" x="38.598" y="70.095" fill="#f00"/><path d="M107.914 137.246l10.72 11.922" stroke-width="1.2" stroke="#000" stroke-miterlimit="10" fill="none"/><path d="M118.633 149.168l10.72 11.922" stroke-width="1.2" stroke="#00f" stroke-miterlimit="10" fill="none"/><path d="M115.668 134.586l8.574 9.535" stroke-width="1.2" stroke="#000" stroke-miterlimit="10" fill="none"/><path d="M124.242 144.12l8.574 9.54" stroke-width="1.2" stroke="#00f" stroke-miterlimit="10" fill="none"/><path d="M117.844 106.758l-9.93 30.488" stroke-width="1.2" stroke="#000" stroke-miterlimit="10" fill="none"/><path d="M129.352 161.09l15.683-3.324" stroke-width="1.2" stroke="#00f" stroke-miterlimit="10" fill="none"/><path d="M145.035 157.766l15.684-3.325" stroke-width="1.2" stroke="#000" stroke-miterlimit="10" fill="none"/><path d="M124.352 153.09h10v16h-10zm0 0" fill="#fff"/><use xlink:href="#b" x="124.352" y="165.466" fill="#00f"/><path d="M160.72 154.44l4.964-15.24" stroke-width="1.2" stroke="#000" stroke-miterlimit="10" fill="none"/><path d="M165.684 139.2l4.964-15.243" stroke-width="1.2" stroke="#00f" stroke-miterlimit="10" fill="none"/><path d="M154.54 149.06l3.972-12.197" stroke-width="1.2" stroke="#000" stroke-miterlimit="10" fill="none"/><path d="M158.512 136.863l3.968-12.195" stroke-width="1.2" stroke="#00f" stroke-miterlimit="10" fill="none"/><path d="M160.72 154.44l10.718 11.923" stroke-width="1.2" stroke="#000" stroke-miterlimit="10" fill="none"/><path d="M171.438 166.363l10.718 11.922M170.648 123.957l-10.718-11.922" stroke-width="1.2" stroke="#00f" stroke-miterlimit="10" fill="none"/><path d="M159.93 112.035l-10.72-11.922" stroke-width="1.2" stroke="#000" stroke-miterlimit="10" fill="none"/><path d="M165.648 115.957h10v16h-10zm0 0" fill="#fff"/><use xlink:href="#b" x="165.648" y="128.333" fill="#00f"/><path d="M149.21 100.113l-31.366 6.645M147.637 108.16l-25.094 5.313" stroke-width="1.2" stroke="#000" stroke-miterlimit="10" fill="none"/><path d="M213.523 171.64m-2.996.102l.215 1.02m-3.215-.918l.434 2.043m-3.43-1.938l.65 3.058m-3.65-2.957l.865 4.08m-3.864-3.978l1.083 5.102m-4.078-5l1.297 6.12m-4.297-6.02l1.516 7.142m-4.51-7.04l1.726 8.165m-4.727-8.058l1.944 9.18m-4.94-9.078l2.16 10.2m-4.72-10.114l2.344 11.07" stroke="#000" stroke-miterlimit="10" fill="none"/><path d="M172.156 170.285h20v16h-20zm0 0" fill="#fff"/><g fill="#00f"><use xlink:href="#b" x="172.156" y="182.661"/><use xlink:href="#c" x="182.126" y="182.661"/></g><path d="M213.523 171.64l21.438 23.844M213.523 171.64l9.93-30.488M223.453 141.152l31.367-6.644M225.027 133.11l25.094-5.317M202.016 117.313l21.437 23.84M254.82 134.508l9.93-30.485M264.75 104.023L243.312 80.18M256.996 106.684L239.848 87.61M243.313 80.18l-31.368 6.644M211.945 86.824l-9.93 30.49M218.125 92.21l-7.94 24.388" stroke-width="1.2" stroke="#000" stroke-miterlimit="10" fill="none"/></g></svg>
